img/header/globe2.svg

<svg viewBox="0 0 495.9 496" xmlns="http://www.w3.org/2000/svg"><path d="m336.5 152c-14.5-89.3-48.7-152-88.5-152s-74 62.7-88.5 152zm-184.5 96a626.79 626.79 0 0 0 3.3 64h185.3a626.79 626.79 0 0 0 3.3-64 626.79 626.79 0 0 0 -3.3-64h-185.3a626.79 626.79 0 0 0 -3.3 64zm324.7-96a248.52 248.52 0 0 0 -158-141.6c24.4 33.8 41.2 84.7 50 141.6zm-299.5-141.6a248.36 248.36 0 0 0 -157.9 141.6h108c8.7-56.9 25.5-107.8 49.9-141.6zm310.2 173.6h-114.7c2.1 21 3.3 42.5 3.3 64s-1.2 43-3.3 64h114.6a245.86 245.86 0 0 0 8.6-64 250.16 250.16 0 0 0 -8.5-64zm-367.4 64c0-21.5 1.2-43 3.3-64h-114.7a242.44 242.44 0 0 0 0 128h114.6c-2-21-3.2-42.5-3.2-64zm39.5 96c14.5 89.3 48.7 152 88.5 152s74-62.7 88.5-152zm159.3 141.6a248.76 248.76 0 0 0 158-141.6h-108c-8.8 56.9-25.6 107.8-50 141.6zm-299.5-141.6a248.52 248.52 0 0 0 158 141.6c-24.4-33.8-41.2-84.7-50-141.6z" fill="#d0d0d0"/></svg>

<svg xmlns="http://www.w3.org/2000/svg" viewBox="0 0 495.9 496"><defs><style>.cls-1{fill:#d0d0d0;}</style></defs><title>Ресурс 1</title><g id="Слой_2" data-name="Слой 2"><g id="Слой_1-2" data-name="Слой 1"><path class="cls-1" d="M336.5,152C322,62.7,287.8,0,248,0s-74,62.7-88.5,152ZM152,248a626.79,626.79,0,0,0,3.3,64H340.6a626.79,626.79,0,0,0,3.3-64,626.79,626.79,0,0,0-3.3-64H155.3A626.79,626.79,0,0,0,152,248Zm324.7-96a248.52,248.52,0,0,0-158-141.6c24.4,33.8,41.2,84.7,50,141.6ZM177.2,10.4A248.36,248.36,0,0,0,19.3,152h108C136,95.1,152.8,44.2,177.2,10.4ZM487.4,184H372.7c2.1,21,3.3,42.5,3.3,64s-1.2,43-3.3,64H487.3a245.86,245.86,0,0,0,8.6-64,250.16,250.16,0,0,0-8.5-64ZM120,248c0-21.5,1.2-43,3.3-64H8.6a242.44,242.44,0,0,0,0,128H123.2C121.2,291,120,269.5,120,248Zm39.5,96C174,433.3,208.2,496,248,496s74-62.7,88.5-152ZM318.8,485.6A248.76,248.76,0,0,0,476.8,344h-108C360,400.9,343.2,451.8,318.8,485.6ZM19.3,344a248.52,248.52,0,0,0,158,141.6c-24.4-33.8-41.2-84.7-50-141.6Z"/></g></g></svg>
